X: 22613
T: Lady's Cloak, The
R: jig
M: 6/8
K: Dmajor
|:agf gfe|dfe d2A|BGG BGG|EFG ~A3|
agf gfe|dfe d2A|Bed cBc|1 dfe d2g:|2 dfe dfg||
|:~a3 ~f2d|Adf ~a2f|~g3 ~e2c|Ace ~g3|
~a3 ~f2d|Adf a2A|Bed cBc|1 dfe dfg:|2 dfe d2g||

